X:920
T:Log Cabin
R:reel
D:De Danann: Selected Reels, Jigs and Songs
Z:id:hn-reel-496
M:C|
L:1/8
K:Dmix
A,D~D2 FGAB|=c2 DE FGA^c|d2^cd BdAF|GEFD EFDB,|
A,D~D2 FGAB|=c2 DE FGA^c|d2^cd BdAF|[1 GFEG FDDB,:|[2 GFEG FD~D2||
|:d2fd Adfd|g2fg egfe|d2fd AB=cA|GE~E2 =CDEG|
d2fd Adfd|(3B^cd ef g2ag|f2e^c dBAG|[1 FGEF D4:|[2 FGEF ~D3B,||
% C:\aaa\abccol~1\hnr4.abc
